X:544
T: ALLAH GIBT LICHT IN NAECHTEN
N: F1058
O: Europa, Mitteleuropa, Deutschland
R: Trost - Lied
M: 4/4
L: 1/16
K: F
 | A4A2A2A4A4 | B8A4z4 |
G4^F2F2G2d2cBAG | F8E4z2
G2 | A2G4G2A2G4G2 | =B8c4z2
_B2 | B4A4G6c2 | F4z12

@@@ Tune index: 5975
